X: 1
T: Over The Moor To Maggie
R: reel
M: 4/4
L: 1/8
K: Gmaj
|G2GA BGBd|egge dBAG|EAAG ~A3G|EAAG AcBA|
~G3A BGBd|egge dBAG|EGGF GBAG|EGGF G2:|
|:ga|b~g3 agef|g2ge d2Bd|eaag ~a3g|eaag a2ga|
b~g3 agef|g2ge d2Bd|eggf gbag|egfa g2:|
|:e3g d3B|c~A3 B2AG|EAAG ~A3G|EAAG A2Bd|
e3g d3B|c~A3 B2AG|EGGF GBAG|EGFA G2:|

